X: 33853
T: Rector At The Feis
R: reel
M: 4/4
K: Amajor
ef|:g2gf gedB|g2gf gedB|eaag aged|cded c~A3|
g2gf gedB|g2gf gedB|eaag aged|1 c2A2 A2Af:|2 c2A2 A2AB||
|:c2A2 A2eA|cdeA cdeA|g2d2 d2fd|adgd fdcd|
c2A2 A2eA|cdeA cdeA|g2gf gedB|deBd c~A3:|

